X: 402
T: The lady of the lake
C:anon.
O:Ireland
B:Francis O'Neill: "The Dance Music of Ireland" (1907) no. 402
R:Single jig
Z:Transcribed by Frank Nordberg - http://www.musicaviva.com
F:http://www.musicaviva.com/abc/tunes/ireland/oneill-1001/oneill-1001-040
2.abc
M:6/8
L:1/8
K:G
A|(B/c/BA) G2D|(E2D) G2A|(B/c/BA) G2A|Bcd edc|(B/c/BA) G2D|(E2D) G2A|B2d
A2c|BGG G2H:|
|:A|B3 (B/c/BA)|Bdd def|g2f e2d|dBG ABc|B3 (B/c/BA)|Bdd def|g2e a2g|fdd d
2"_D.C.":|
W:
W:
W:  From Musica Viva - http://www.musicaviva.com
W:  the Internet center for free sheet music downloads.


